src/icons/handwave.svg

<svg viewBox="0 0 24 24" xmlns="http://www.w3.org/2000/svg">
  <path fill-rule="evenodd" clip-rule="evenodd"
    d="M14.1661 3.21858C14.1821 3.22358 15.7391 3.76058 16.0331 5.91558C16.0761 6.22858 16.3441 6.45558 16.6511 6.45558C16.6801 6.45558 16.7081 6.45358 16.7361 6.44958C17.0791 6.40358 17.3181 6.08858 17.2711 5.74658C16.8741 2.82758 14.6511 2.06258 14.5571 2.03158C14.2301 1.92358 13.8761 2.10158 13.7681 2.42858C13.6601 2.75758 13.8381 3.11058 14.1661 3.21858ZM4.68268 17.2777C4.63368 17.2477 3.49368 16.5247 3.28968 14.5347C3.25368 14.1877 2.94468 13.9317 2.59468 13.9597C2.5928 13.9597 2.5907 13.96 2.58848 13.9602L2.58845 13.9602C2.58596 13.9605 2.58332 13.9607 2.58068 13.9607C2.22668 13.9967 1.96768 14.3117 2.00268 14.6657C2.27568 17.3357 3.95068 18.3407 4.02168 18.3827C4.13968 18.4517 4.27068 18.4787 4.39668 18.4687C4.59768 18.4527 4.78768 18.3437 4.89968 18.1587C5.08168 17.8577 4.98368 17.4627 4.68268 17.2777ZM18.3681 15.4623L19.4181 10.9623C19.5321 10.5263 19.2731 10.0803 18.8421 9.96527C18.4091 9.85027 17.9671 10.1103 17.8541 10.5463L17.5211 11.8193C17.0861 13.5303 16.1711 11.9063 16.1691 11.9013L13.3331 6.10027C13.1361 5.69627 12.6501 5.53027 12.2501 5.73027C11.8491 5.92927 11.6851 6.41827 11.8821 6.82227L13.9001 10.9523C13.8991 10.9543 13.8971 10.9563 13.8961 10.9593L14.1601 11.4973C14.3071 11.7953 14.2071 12.1473 13.9381 12.2813C13.6671 12.4153 13.3301 12.2813 13.1851 11.9833L12.9331 11.4703C12.9328 11.4703 12.9324 11.4704 12.9321 11.4705C12.9314 11.4707 12.9308 11.4709 12.9301 11.4703L10.4421 6.41827C10.2451 6.01427 9.76008 5.84827 9.35908 6.04727C8.95808 6.24727 8.79408 6.73627 8.99108 7.14127L11.1281 11.4813C11.1271 11.4833 11.4341 12.1133 11.4341 12.1133C11.5791 12.4123 11.4801 12.7633 11.2101 12.8973C10.9401 13.0313 10.6041 12.8983 10.4571 12.5993L8.35908 8.34627C8.17408 7.96727 7.71908 7.81127 7.34308 7.99827C6.98508 8.17627 6.83708 8.60027 6.98408 8.96827L9.59108 14.2663C9.73708 14.5653 9.63808 14.9163 9.36708 15.0503C9.09808 15.1853 8.76108 15.0513 8.61408 14.7523L6.76508 10.9923C6.56308 10.5973 6.08608 10.4343 5.68908 10.6313C5.28808 10.8313 5.12408 11.3203 5.32108 11.7253L8.25608 17.7203C8.75108 18.7403 9.58508 19.5303 10.6411 19.9413C11.7531 20.3723 12.9611 20.3433 14.0501 19.8573L15.7091 19.1163C16.1331 18.9263 17.1921 18.3523 17.8511 17.1283C18.0371 16.7823 18.2111 16.1743 18.3671 15.4643L18.3681 15.4623ZM17.3541 8.67827C17.8691 8.31827 18.4941 8.18227 19.1101 8.29927C20.2171 8.50327 20.9281 9.44427 21.0101 10.8153C21.0131 10.8633 21.0131 10.9113 21.0081 10.9593C21.007 10.9704 21.0057 10.9868 21.0042 11.0048C21.0029 11.0209 21.0015 11.0382 21.0001 11.0543L19.9281 16.2353C19.9281 16.2353 19.5551 19.1193 16.9941 20.4623C13.5701 22.2503 11.7231 21.9563 11.7231 21.9563C10.2361 21.8673 9.08408 21.2853 8.24008 20.6483C7.94708 20.3983 7.23908 19.7233 6.81808 18.6993L6.81208 18.7023L3.81808 12.5763L3.70308 12.3143C3.44808 11.7363 3.43408 11.0933 3.65908 10.5033C3.88508 9.91327 4.32408 9.44627 4.89708 9.19027C5.03108 9.13027 5.16808 9.08827 5.30608 9.05527C5.21308 8.61227 5.24608 8.15027 5.41108 7.71827C5.63808 7.12827 6.07708 6.66227 6.65108 6.40527C6.91308 6.28827 7.18508 6.23227 7.45508 6.21427C7.60808 5.50027 8.08008 4.86427 8.79108 4.54627C9.50508 4.22827 10.2931 4.30327 10.9231 4.67227C11.1241 4.47027 11.3591 4.30127 11.6271 4.18227C12.2001 3.92527 12.8361 3.90927 13.4231 4.13727C14.0081 4.36527 14.4701 4.80927 14.7251 5.38627L16.5791 9.60727C16.7531 9.23827 17.0121 8.91627 17.3541 8.67827Z" />
</svg>

<svg viewBox="0 0 24 24" xmlns="http://www.w3.org/2000/svg"><path fill-rule="evenodd" clip-rule="evenodd" d="M14.166 3.219c.016.005 1.573.542 1.867 2.697a.625.625 0 001.238-.17c-.397-2.918-2.62-3.683-2.714-3.714a.625.625 0 00-.39 1.187zM4.683 17.278c-.05-.03-1.19-.753-1.393-2.743a.646.646 0 00-.695-.575H2.58a.646.646 0 00-.578.706c.273 2.67 1.948 3.675 2.019 3.717a.646.646 0 00.878-.224.646.646 0 00-.217-.881zm13.685-1.816l1.05-4.5a.817.817 0 00-.576-.997.807.807 0 00-.988.581l-.333 1.273c-.435 1.711-1.35.087-1.352.082l-2.836-5.8a.805.805 0 00-1.083-.37.819.819 0 00-.368 1.091l2.018 4.13-.004.007.264.538c.147.298.047.65-.222.784-.27.134-.608 0-.753-.298l-.252-.513h-.003l-2.488-5.052a.806.806 0 00-1.083-.37.821.821 0 00-.368 1.093l2.137 4.34.306.632c.145.3.046.65-.224.784s-.606.001-.753-.298L8.36 8.346a.756.756 0 00-1.016-.348.762.762 0 00-.359.97l2.607 5.298c.146.3.047.65-.224.784-.269.135-.606.001-.753-.298l-1.849-3.76a.806.806 0 00-1.076-.36.821.821 0 00-.368 1.093l2.935 5.995a4.431 4.431 0 002.385 2.221 4.398 4.398 0 003.41-.084l1.658-.74c.424-.19 1.483-.765 2.142-1.989.186-.346.36-.954.516-1.664l.001-.002zm-1.014-6.784A2.298 2.298 0 0119.11 8.3c1.107.204 1.818 1.145 1.9 2.516a.866.866 0 01-.002.144l-.004.046a8.252 8.252 0 01-.004.05l-1.072 5.18s-.373 2.884-2.934 4.227c-3.424 1.788-5.27 1.494-5.27 1.494-1.488-.089-2.64-.67-3.484-1.308A5.311 5.311 0 016.818 18.7l-.006.003-2.994-6.126-.115-.262a2.368 2.368 0 01-.044-1.81A2.344 2.344 0 014.897 9.19c.134-.06.271-.102.41-.135a2.371 2.371 0 011.344-2.65c.262-.117.534-.173.804-.19a2.356 2.356 0 011.336-1.669 2.33 2.33 0 012.132.126 2.325 2.325 0 012.5-.535 2.35 2.35 0 011.302 1.25l1.854 4.22c.174-.369.433-.69.775-.929z"/></svg>
